X: 590
T: Achonry Lasses, The
R: reel
M: 4/4
K: Gmajor
G3B A=F~F2|dBcA BGAF|GBAF DEFA|dBcA (3Bcd AF|
G3B A=F~F2|dBcA BGAF|GBAG FGAc|dBcA BGGB||
g3g fddf|eccB cdef|g2ag fddB|cedc BGGB|
gbag fddf|eccB cdef|gbag fafd|cedc BdcA||

